!!!!SEGMENT: pl-wtm--r-995--001-009_krogulski-jozef-wladyslaw--msza-pasterska-dona-nobis.krn
!!!cenid: 18xx:2091
!!!COM: Krogulski, Józef Władysław
!!!COM-rismID: pe30001797
!!!CDT: 1815/10/04-1842/01/09
!!!CNT: Polish
!!!OPR: Msza pasterska
!!!OTL: Dona nobis
!!!OMV: 009
!!!PDT:
!!!AGN: Sacred; Mass
!!!YEC: Copyright 2022 Narodowy Instytut Fryderyka Chopina (https://polishscores.org)
!!!YEM: License CC-BY-4.0 (https://creativecommons.org/licenses/by/4.0)
!!!SMS-siglum: PL-Wtm
!!!SMS-shelfmark: R 995
!!!SMS-shelfwork: 001-009 M
!!!SMS-variant:
!!!SMS-altvar:
!!!NIFC-rismSourceID: 1001083272
!!!NIFC-rismChildID: 1001083272
!!!NIFC-islandoraID:
!!!URL-pdf-islandora:
!!!URL-scan:
!!!IIIF:
!!!ONB-nifc: UWAGA: części Mszy: 1. Kyrie, 2. Gloria, 3. Graduale, 4. Credo, 5. Offertorium, 6. Sanctus, 7. Benedictus, 8. Agnus Dei, 9. Dona nobis
!!!OMD: Andante molto.
!!!OMD-mod: Andante molto
!!!AIN: 1 bass 1 organ 2 soprn 1 tenor
!!!key: C
**kern	**kern	**dynam	**kern	**text	**dynam	**kern	**text	**dynam	**kern	**text	**dynam	**kern	**text	**dynam
*part5	*part5	*	*part4	*	*	*part3	*	*	*part2	*	*	*part1	*	*
*staff6	*staff5	*	*staff4	*	*	*staff3	*	*	*staff2	*	*	*staff1	*	*
*I"Organ	*I"Organ	*	*I"Baſso	*	*	*I"Tenor	*	*	*I"2.	*	*	*I"Sopra 1.	*	*
*mI"Organo	*mI"Organo	*	*mI"Basso	*	*	*mI"Tenore	*	*	*mI"Soprano II	*	*	*mI"Soprano I	*	*
*I'org	*I'org	*	*I'B	*	*	*I'T	*	*	*I'S 2	*	*	*I'S 1	*	*
*Iorgan	*Iorgan	*	*Ibass	*	*	*Itenor	*	*	*Isoprn	*	*	*Isoprn	*	*
*ICklav	*ICklav	*	*ICvox	*	*	*ICvox	*	*	*ICvox	*	*	*ICvox	*	*
*	*	*	*IGcoro	*	*	*IGcoro	*	*	*IGcoro	*	*	*IGcoro	*	*
*clefF4	*clefG2	*	*clefF4	*	*	*clefG2	*	*	*clefG2	*	*	*clefG2	*	*
*	*	*	*	*	*	*mclefGv2	*	*	*	*	*	*	*	*
!	!	!	!	!	!	!LO:MO:mod=*null:null	!	!	!	!	!	!	!	!
*	*	*	*	*	*	*ITrd8c12	*	*	*	*	*	*	*	*
*k[]	*k[]	*	*k[]	*	*	*k[]	*	*	*k[]	*	*	*k[]	*	*
*C:	*C:	*	*C:	*	*	*C:	*	*	*C:	*	*	*C:	*	*
*M4/4	*M4/4	*	*M4/4	*	*	*M4/4	*	*	*M4/4	*	*	*M4/4	*	*
*met(c)	*met(c)	*	*met(c)	*	*	*met(c)	*	*	*met(c)	*	*	*met(c)	*	*
*mmet(c)	*mmet(c)	*	*mmet(c)	*	*	*mmet(c)	*	*	*mmet(c)	*	*	*mmet(c)	*	*
=1	=1	=1	=1	=1	=1	=1	=1	=1	=1	=1	=1	=1	=1	=1
*^	*	*	*	*	*	*	*	*	*	*	*	*	*	*
*	*	*	*	*	*	*	*	*ij	*	*	*ij	*	*	*	*
!	!	!	!LO:DY:rj	!	!	!LO:DY:rj:b	!	!	!LO:DY:rj:b	!	!	!LO:DY:rj:b	!	!	!LO:DY:rj:b
4.G/	[1C	2g 2e/	p	[1C	Do-	p	4.G\	Do-	p	4.e/	Do-	p	4.g/	Do-	p
8c/	.	.	.	.	.	.	8c\	-na	.	8e/	-na	.	8g/	-na	.
4A/	.	4a 4f/	.	.	.	.	4A/	no-	.	4f/	no-	.	4a/	no-	.
8G/L	.	4b 4g/	.	.	.	.	8G/L	-bis	.	4g/	-bis	.	4b/	-bis	.
8F/J	.	.	.	.	.	.	8F/J	.	.	.	.	.	.	.	.
=2	=2	=2	=2	=2	=2	=2	=2	=2	=2	=2	=2	=2	=2	=2	=2
!	!LO:MO:mod=*null:null	!	!	!	!	!	!	!	!	!	!	!	!LO:MO:mod=*null:null	!	!
*	*2\right	*	*	*	*	*	*	*	*	*	*	*	*2\right	*	*
4E/	2C\]	2cc 2g/	.	2C/]	.	.	(4E/	pa-	.	2g/	pa-	.	2cc\	pa-	.
4G/	.	.	.	.	.	.	4G/)	.	.	.	.	.	.	.	.
8c/	8C\	8g 8e/	.	8C/	-na	.	8c\	-cem	.	8e/	-cem	.	8g/	-cem	.
*	*	*	*	*	*	*	*	*Xij	*	*	*Xij	*	*	*	*
8r	8ryy	8r	.	8r	.	.	8r	.	.	8r	.	.	8r	.	.
!	!	!	!	!	!	!	!	!	!	!	!	!	!	!LO:MO:mod=do-	!
4r	4ryy	4g/	.	4r	.	.	4r	.	.	4r	.	.	8g/	Do-	.
.	.	.	.	.	.	.	.	.	.	.	.	.	8g/	-na	.
*v	*v	*	*	*	*	*	*	*	*	*	*	*	*	*	*
=3	=3	=3	=3	=3	=3	=3	=3	=3	=3	=3	=3	=3	=3	=3
*	*^	*	*	*	*	*	*	*	*	*	*	*	*	*
*	*	*	*	*	*ij	*	*	*	*	*	*	*	*	*	*
!	!	!	!	!	!LO:MO:mod=do-	!	!	!LO:MO:mod=do-	!	!	!LO:MO:mod=do-	!	!	!	!
4F\	[1g	4d 4B\	.	4F\	Do-	.	4B\	Do-	.	4d/	Do-	.	2.g/	no-	.
4E\	.	4e 4c\	.	4E\	-na	.	4c\	-na	.	4e/	-na	.	.	.	.
4BB\	.	4f 4d\	.	4BB/	no-	.	4d\	no-	.	4f/	no-	.	.	.	.
4C\	.	[>4e [>4c\	.	4C/	-bis	.	4c\	-bis	.	4e/	-bis	.	4g/	-bis	.
*	*v	*v	*	*	*	*	*	*	*	*	*	*	*	*	*
=4	=4	=4	=4	=4	=4	=4	=4	=4	=4	=4	=4	=4	=4	=4
!	!	!	!LO:MO:mod=*null:null	!	!	!LO:MO:mod=*null:null	!	!	!	!	!	!	!	!
*	*	*	*2\right	*	*	*2\right	*	*	*	*	*	*	*	*
[2G\	2g] 2e] 2c/]	.	2G\	pa-	.	2c\	pa-	.	2e/	pa-	.	2g/	pa-	.
!	!	!	!	!LO:MO:mod=-cem.	!	!	!LO:MO:mod=-cem.	!	!	!LO:MO:mod=-cem.	!	!	!LO:MO:mod=-cem.	!
4G\]	4g 4d 4B/	.	4G\	-cem	.	4B\	-cem	.	4d/	-cem	.	4g/	-cem	.
*	*	*	*	*Xij	*	*	*	*	*	*	*	*	*	*
4r	4r	.	4r	.	.	4r	.	.	4r	.	.	4r	.	.
=5	=5	=5	=5	=5	=5	=5	=5	=5	=5	=5	=5	=5	=5	=5
*^	*	*	*	*	*	*	*	*	*	*	*	*	*	*
*	*	*	*	*	*	*	*	*ij	*	*	*ij	*	*	*	*
4.G/	[1C	2g 2e/	.	[1C	Do-	.	4.G\	Do-	.	4.e/	Do-	.	4.g/	Do-	.
8c/	.	.	.	.	.	.	8c\	-na	.	8e/	-na	.	8g/	-na	.
4A/	.	4a 4f/	.	.	.	.	4A/	no-	.	4f/	no-	.	4a/	no-	.
8G/L	.	4b 4g/	.	.	.	.	8G/L	-bis	.	4g/	-bis	.	4b/	-bis	.
8F/J	.	.	.	.	.	.	8F/J	.	.	.	.	.	.	.	.
=6	=6	=6	=6	=6	=6	=6	=6	=6	=6	=6	=6	=6	=6	=6	=6
*	*	*^	*	*	*	*	*	*	*	*	*	*	*	*	*
4E/	2C\_	2cc 2g/	2ryyyy	.	2C/]	.	.	(4E/	pa-	.	2g/	pa-	.	2cc\	pa-	.
4G/	.	.	.	.	.	.	.	4G/)	.	.	.	.	.	.	.	.
8c/	8C\]	8g 8e/	8ryyyy	.	8C/	-na	.	8c\	-cem	.	8e/	-cem	.	8g/	-cem	.
8r	8ryy	8r	8ryy	.	8r	.	.	8r	.	.	8r	.	.	8r	.	.
*	*	*	*	*	*	*ij	*	*	*	*	*	*	*	*	*	*
!	!	!	!	!	!	!LO:MO:mod=do-	!	!	!	!	!	!	!	!	!	!
8G/L	4C\	4ee/	8e\L	.	8C/	Do-	.	8G/	do-	.	8e/	do-	.	8ee\	do-	.
8A/J	.	.	8f#X\J	.	8C/	-na	.	8A/	-na	.	8f#X/	-na	.	8ee\	-na	.
*	*	*v	*v	*	*	*	*	*	*	*	*	*	*	*	*	*
=7	=7	=7	=7	=7	=7	=7	=7	=7	=7	=7	=7	=7	=7	=7	=7
4.B/	4BB\	4dd 4g/	.	(4BB/	no-	.	(4.B\	no-	.	2.g/	no-	.	(4dd\	no-	.
.	4E\	8g/L	.	4E/)	.	.	.	.	.	.	.	.	8g\L	.	.
8c#X/	.	8a/J	.	.	.	.	8c#X\	.	.	.	.	.	8a\J	.	.
4d/	2D\	4b 4g/	.	2D/	-bis	.	4d\)	.	.	.	.	.	4b\)	.	.
4cn/	.	4a 4f#X/	.	.	.	.	4c\	-bis	.	4f#X/	-bis	.	4a/	-bis	.
*v	*v	*	*	*	*	*	*	*	*	*	*	*	*	*	*
=8	=8	=8	=8	=8	=8	=8	=8	=8	=8	=8	=8	=8	=8	=8
!	!LO:SIC:s=[2g	!	!	!	!	!	!	!	!	!	!	!	!	!
[2B [>2G\	2g/	.	2G\	pa-	.	2B\	pa-	.	2g/	pa-	.	2g/	pa-	.
!	!LO:SIC:s=4g]	!	!	!LO:MO:mod=-cem.	!	!	!LO:MO:mod=-cem.	!	!	!LO:MO:mod=-cem.	!	!	!LO:MO:mod=-cem.	!
4B] 4G\]	4g/	.	4G\	-cem	.	4B\	-cem	.	4g/	-cem	.	4g/	-cem	.
*	*	*	*	*Xij	*	*	*Xij	*	*	*Xij	*	*	*	*
4r	4r	.	4r	.	.	4r	.	.	4r	.	.	4r	.	.
=9	=9	=9	=9	=9	=9	=9	=9	=9	=9	=9	=9	=9	=9	=9
!	!	!	!	!	!LO:DY:t= :mod=%s	!	!	!	!	!	!	!	!	!
!	!	!	!	!	!LO:MO:mod=!LO&colon;DY&colon;ed=brack	!	!	!	!	!	!	!	!	!
!	!	!	!	!	!null	!	!	!	!	!	!	!	!	!
2G 2GG\	1r	.	(2G\	Do-	p	1r	.	.	1r	.	.	1r	.	.
4A 4AA\	.	.	4A\)	.	.	.	.	.	.	.	.	.	.	.
4B 4BB\	.	.	4B\	-na	.	.	.	.	.	.	.	.	.	.
!!LO:LB:g=original
=10	=10	=10	=10	=10	=10	=10	=10	=10	=10	=10	=10	=10	=10	=10
!	!	!	!	!	!	!	!	!LO:DY:rj:b	!	!	!	!	!	!
2c 2C\	2c/	.	2c\	no-	.	(2c\	Do-	p	1r	.	.	1r	.	.
2B-X 2BB-X\	4d/	.	2B-X\	-bis	.	4d\)	.	.	.	.	.	.	.	.
.	4e/	.	.	.	.	4e\	-na	.	.	.	.	.	.	.
!	!	!	!	!	!	!	!	!	!	!	!LO:DY:b:mod= 	!	!	!
.	.	.	.	.	.	.	.	.	.	.	p	.	.	.
=11	=11	=11	=11	=11	=11	=11	=11	=11	=11	=11	=11	=11	=11	=11
*	*^	*	*	*	*	*	*	*	*	*	*	*	*	*
!	!	!LO:MO:mod=*null:null	!	!	!	!	!	!	!	!	!	!	!	!	!
*	*	*2\right	*	*	*	*	*	*	*	*	*	*	*	*	*
!	!	!	!	!	!	!	!	!	!	!	!	!LO:DY:t= :mod=%s	!	!	!
2A 2AA\	2a/	2f\	.	2A\	pa-	.	2f\	no-	.	(2a/	Do-	p	1r	.	.
2G 2GG\	4b/	2e\	.	2G\	.	.	2e\	-bis	.	4b/)	.	.	.	.	.
.	4cc#X/	.	.	.	.	.	.	.	.	4cc#X/	-na	.	.	.	.
!	!	!	!	!	!	!	!	!	!	!	!	!	!	!	!LO:DY:b:mod=
.	.	.	.	.	.	.	.	.	.	.	.	.	.	.	p
*	*v	*v	*	*	*	*	*	*	*	*	*	*	*	*	*
=12	=12	=12	=12	=12	=12	=12	=12	=12	=12	=12	=12	=12	=12	=12
!	!	!	!	!	!	!	!	!	!LO:MO:mod=*null:null	!	!	!	!	!
*	*	*	*	*	*	*	*	*	*2\right	*	*	*	*	*
!	!	!	!	!	!	!	!	!	!	!	!	!	!	!LO:DY:t= :mod=%s
2F 2FF/	2dd 2a\	.	2F\	.	.	2d\	pa-	.	2dd\	no-	.	(2dd\	Do-	p
4E 4EE/	4ee 4cc#X\	.	4E\	.	.	4c#X\	.	.	2a/	-bis	.	4ee\)	.	.
4D 4DD/	4ff 4dd\	.	4D\	.	.	4d\	.	.	.	.	.	4ff\	-na	.
=13	=13	=13	=13	=13	=13	=13	=13	=13	=13	=13	=13	=13	=13	=13
*	*^	*	*	*	*	*	*	*	*	*	*	*	*	*
[1G [>1GG	2gg/	4ccn\	.	[1G	.	.	4cnX\	.	.	[>1g	pa-	.	(2gg\	no-	.
.	.	8b\L	.	.	.	.	8B\L	.	.	.	.	.	.	.	.
.	.	8a\J	.	.	.	.	8A\J	.	.	.	.	.	.	.	.
.	2ryyyy	4dd 4b\	.	.	.	.	4B\	.	.	.	.	.	4dd\)	.	.
.	.	4ff 4dd\	.	.	.	.	4d\	.	.	.	.	.	4ff\	-bis	.
*	*v	*v	*	*	*	*	*	*	*	*	*	*	*	*	*
=14	=14	=14	=14	=14	=14	=14	=14	=14	=14	=14	=14	=14	=14	=14
1G_ 1GG_>	4ee 4cc\	.	1G_	.	.	4c\	.	.	1g_>	.	.	4ee\	pa-	.
.	4dd 4b\	.	.	.	.	4d\	.	.	.	.	.	4dd\	.	.
.	4cc 4e/	.	.	.	.	4e\	.	.	.	.	.	4cc\	.	.
.	4b 4d/	.	.	.	.	4d\	.	.	.	.	.	4b\	.	.
=15	=15	=15	=15	=15	=15	=15	=15	=15	=15	=15	=15	=15	=15	=15
*	*^	*	*	*	*	*	*	*	*	*	*	*	*	*
1G_ 1GG_	2.a/	4g\	.	1G_	.	.	2.c\	.	.	4g/]	.	.	2.a/	.	.
.	.	8f#X\L	.	.	.	.	.	.	.	8f#X/L	.	.	.	.	.
.	.	8e\J	.	.	.	.	.	.	.	8e/J	.	.	.	.	.
.	.	2f#\	.	.	.	.	.	.	.	2f#/	.	.	.	.	.
.	8b/L	.	.	.	.	.	8d\L	.	.	.	.	.	8b/L	.	.
.	8a/J	.	.	.	.	.	8c\J	.	.	.	.	.	8a/J	.	.
*	*v	*v	*	*	*	*	*	*	*	*	*	*	*	*	*
=16	=16	=16	=16	=16	=16	=16	=16	=16	=16	=16	=16	=16	=16	=16
2G_ 2GG/_	2g/	.	2G\]	.	.	2B\	.	.	2g/	.	.	2g/	.	.
!	!	!	!	!LO:MO:mod=-cem.	!	!	!LO:MO:mod=-cem.	!	!	!LO:MO:mod=-cem.	!	!	!LO:MO:mod=-cem.	!
4G] 4GG/]	4g/	.	4G\	-cem	.	4B\	-cem	.	4g/	-cem	.	4g/	-cem	.
4r	4r	.	4r	.	.	4r	.	.	4r	.	.	4r	.	.
=17	=17	=17	=17	=17	=17	=17	=17	=17	=17	=17	=17	=17	=17	=17
*	*^	*	*	*	*	*	*	*	*	*	*	*	*	*
2C\	2g 2e/	1c	.	(2C\	Do-	.	(1c	Do-	.	(2e/	Do-	.	(2g/	Do-	.
!	!	!	!	!	!	!	!	!	!	!	!	!	!LO:SIC:s=2a	!	!
2F\	2a 2f/	.	.	2F\	.	.	.	.	.	2f/	.	.	(2a/)	.	.
*	*v	*v	*	*	*	*	*	*	*	*	*	*	*	*	*
=18	=18	=18	=18	=18	=18	=18	=18	=18	=18	=18	=18	=18	=18	=18
2d 2E\	2b 2g#X/	.	2E\)	.	.	2d\)	.	.	2g#X/)	.	.	2b/)	.	.
2c 2A\	2cc 2a/	.	2A\	-na	.	2c\	-na	.	2a/	-na	.	2cc\	-na	.
!!LO:PB:g=original
=19	=19	=19	=19	=19	=19	=19	=19	=19	=19	=19	=19	=19	=19	=19
*^	*^	*	*	*	*	*	*	*	*	*	*	*	*	*
!	!	!	!	!	!	!LO:MO:null:mod=[no-	!	!	!	!	!	!LO:MO:null:mod=[no-	!	!	!	!
4c/	1G	2.dd/	4a\	.	2.G\	.	.	(4c\	no-	.	(4a/	.	.	2.dd\	no-	.
!	!	!	!	!	!	!	!	!	!	!	!LO:SIC:s=8gL	!	!	!	!	!
8B/L	.	.	8g\L	.	.	.	.	8B\L	.	.	8gn/L	.	.	.	.	.
8A#X/J	.	.	8f#X\J	.	.	.	.	8A#X\J	.	.	8f#X/J)	.	.	.	.	.
!	!	!	!	!	!	!	!	!	!	!	!	!LO:MO:null:mod=-bis	!	!	!	!
4B/	.	.	2g\	.	.	.	.	4B\)	.	.	2g/	.	.	.	.	.
!	!	!	!	!	!	!LO:MO:null:mod=-bis	!	!	!	!	!	!	!	!	!	!
8c/L	.	8ee/L	.	.	4G\	.	.	8c\L	-bis	.	.	.	.	8ee\L	-bis	.
8d/J	.	8ff/J	.	.	.	.	.	8d\J	.	.	.	.	.	8ff\J	.	.
*v	*v	*	*	*	*	*	*	*	*	*	*	*	*	*	*	*
*	*v	*v	*	*	*	*	*	*	*	*	*	*	*	*	*
=20	=20	=20	=20	=20	=20	=20	=20	=20	=20	=20	=20	=20	=20	=20
!	!	!	!	!LO:MO:null:mod=pa-	!	!	!	!	!	!LO:MO:null:mod=pa-	!	!	!	!
2B 2G\	2ff 2dd\	.	2G\	.	.	2B\	pa-	.	2d/	.	.	2ff\	pa-	.
!	!	!	!	!LO:MO:null:mod=-cem.	!	!	!LO:MO:mod=-cem.	!	!	!LO:MO:null:mod=-cem.	!	!	!LO:MO:mod=-cem.	!
4c 4C\	4ee 4cc\	.	4C/	.	.	4c\	-cem	.	4e/	.	.	4ee\	-cem	.
4r	4r	.	4r	.	.	4r	.	.	4r	.	.	4r	.	.
=21	=21	=21	=21	=21	=21	=21	=21	=21	=21	=21	=21	=21	=21	=21
*	*^	*	*	*	*	*	*	*	*	*	*	*	*	*
!	!	!	!	!	!LO:MO:null:mod=Do-	!	!	!	!	!	!LO:MO:null:mod=Do-	!	!	!	!
2B 2E\	4.ee/	2g#X\	.	2E\	.	.	2B\	Do-	.	2g#X/	.	.	(4.ee\	Do-	.
.	8dd/	.	.	.	.	.	.	.	.	.	.	.	8dd\)	.	.
!	!	!	!	!	!LO:MO:null:mod=-na	!	!	!	!	!	!LO:MO:null:mod=-na	!	!	!	!
4c 4A\	4cc/	4a\	.	4A\	.	.	4c\	-na	.	4a/	.	.	4cc\	-na	.
4r	4r	4ryy	.	4r	.	.	4r	.	.	4r	.	.	4r	.	.
*	*v	*v	*	*	*	*	*	*	*	*	*	*	*	*	*
=22	=22	=22	=22	=22	=22	=22	=22	=22	=22	=22	=22	=22	=22	=22
!	!	!	!	!LO:MO:null:mod=do-	!	!	!LO:MO:mod=do-	!	!	!LO:MO:null:mod=do-	!	!	!LO:MO:mod=do-	!
2E\	4.cc 4.e/	.	2E\	.	.	(4.e\	Do-	.	(4.e/	.	.	(4.cc\	Do-	.
.	8b 8g#X 8d/	.	.	.	.	8d\)	.	.	8g#X/)	.	.	8b\)	.	.
!	!	!	!	!LO:MO:null:mod=-na	!	!	!	!	!	!LO:MO:null:mod=-na	!	!	!	!
4A\	4a 4c/	.	4A\	.	.	4c\	-na	.	4a/	.	.	4a/	-na	.
4r	4r	.	4r	.	.	4r	.	.	4r	.	.	4r	.	.
=23	=23	=23	=23	=23	=23	=23	=23	=23	=23	=23	=23	=23	=23	=23
*^	*^	*	*	*	*	*	*	*	*	*	*	*	*	*
!	!	!	!	!	!	!LO:MO:null:mod=do-	!	!	!LO:MO:mod=do-	!	!	!LO:MO:null:mod=do-	!	!	!LO:MO:mod=do-	!
[2c/	2F\	2a/	1d	.	4.F\	.	.	4.c\	Do-	.	4.d/	.	.	4.a/	Do-	.
!	!	!	!	!	!	!LO:MO:null:mod=-na	!	!	!	!	!	!LO:MO:null:mod=-na	!	!	!	!
.	.	.	.	.	8F\	.	.	8c\	-na	.	8d/	.	.	8a/	-na	.
!	!	!	!	!	!	!LO:MO:null:mod=no-	!	!	!	!	!	!LO:MO:null:mod=no-	!	!	!	!
8c/L]	2G\	4g/	.	.	4G\	.	.	8c\L	no-	.	4d/	.	.	4g/	no-	.
8B/	.	.	.	.	.	.	.	8B\J	.	.	.	.	.	.	.	.
!	!	!	!	!	!	!LO:MO:null:mod=-bis	!	!	!	!	!	!LO:MO:null:mod=-bis	!	!	!	!
8A/	.	4f/	.	.	4G\	.	.	8A\L	-bis	.	4d/	.	.	4f/	-bis	.
8B/J	.	.	.	.	.	.	.	8B\J	.	.	.	.	.	.	.	.
=24	=24	=24	=24	=24	=24	=24	=24	=24	=24	=24	=24	=24	=24	=24	=24	=24
!	!	!	!	!	!	!LO:MO:null:mod=pa-	!	!	!	!	!	!LO:MO:null:mod=pa-	!	!	!	!
2.c/	[1C	2e/	2ryyyy	.	4C/	.	.	4c\	pa-	.	4e/	.	.	4e/	pa-	.
!	!	!	!	!	!	!LO:MO:null:mod=-cem.	!	!	!LO:MO:mod=-cem.	!	!	!LO:MO:null:mod=-cem.	!	!	!LO:MO:mod=-cem.	!
.	.	.	.	.	4C/	.	.	4c\	-cem	.	4e/	.	.	4e/	-cem	.
!	!	!	!	!	!	!LO:MO:null:mod=Do-	!	!	!	!	!	!LO:MO:null:mod=Do-	!	!	!	!
.	.	4cc/	2e\	.	4C/	.	.	4c\	Do-	.	4e/	.	.	4cc\	Do-	.
!	!	!	!	!	!	!LO:MO:null:mod=-na	!	!	!	!	!	!LO:MO:null:mod=-na	!	!	!	!
4B-X/	.	4cc#X/	.	.	4C/	.	.	4B-X\	-na	.	4e/	.	.	4cc#X\	-na	.
=25	=25	=25	=25	=25	=25	=25	=25	=25	=25	=25	=25	=25	=25	=25	=25	=25
!	!	!	!	!	!	!LO:MO:null:mod=no-	!	!	!	!	!	!LO:MO:null:mod=no-	!	!	!	!
4A/	1C_	4dd/	1f	.	2.C/	.	.	(4A/	no-	.	2.f/	.	.	(4dd\	no-	.
4A-X/	.	8ee/L	.	.	.	.	.	4A-X/	.	.	.	.	.	8ee\L	.	.
.	.	8dd/J	.	.	.	.	.	.	.	.	.	.	.	8dd\J	.	.
!	!	!LO:SIC:s=8ccL	!	!	!	!	!	!	!	!	!	!	!	!	!	!
2G/	.	8ccn/L	.	.	.	.	.	4G/)	.	.	.	.	.	8ccn\L	.	.
.	.	8b/	.	.	.	.	.	.	.	.	.	.	.	8b\J)	.	.
!	!	!	!	!	!	!LO:MO:null:mod=-bis	!	!	!	!	!	!LO:MO:null:mod=-bis	!	!	!	!
.	.	8a/	.	.	4C/	.	.	4d\	-bis	.	4f/	.	.	8a/L	-bis	.
.	.	8b/J	.	.	.	.	.	.	.	.	.	.	.	8b/J	.	.
=26	=26	=26	=26	=26	=26	=26	=26	=26	=26	=26	=26	=26	=26	=26	=26	=26
!	!	!	!	!	!	!LO:MO:null:mod=pa-	!	!	!	!	!	!LO:MO:null:mod=pa-	!	!	!	!
2.c/	1C_	4cc/	2.e\	.	4C/	.	.	4c\	pa-	.	4e/	.	.	4cc\	pa-	.
!	!	!	!	!	!	!LO:MO:null:mod=-cem	!	!	!	!	!	!LO:MO:null:mod=-cem	!	!	!	!
.	.	2g/	.	.	4C/	.	.	4c\	-cem	.	4e/	.	.	4g/	-cem	.
!	!	!	!	!	!	!LO:MO:null:mod=do-	!	!	!LO:MO:mod=do-	!	!	!LO:MO:null:mod=do-	!	!	!LO:MO:mod=do-	!
.	.	.	.	.	4C/	.	.	4c\	Do-	.	4e/	.	.	4gg\	Do-	.
!	!	!	!	!	!	!LO:MO:null:mod=-na	!	!	!	!	!	!LO:MO:null:mod=-na	!	!	!	!
4B-X/	.	4ee/	4g\	.	4C/	.	.	4B-X\	-na	.	4g/	.	.	4ee\	-na	.
=27	=27	=27	=27	=27	=27	=27	=27	=27	=27	=27	=27	=27	=27	=27	=27	=27
!	!	!	!	!	!	!LO:MO:null:mod=no-	!	!	!	!	!	!LO:MO:null:mod=no-	!	!	!	!
4A/	1C_	4dd/	1f	.	4C/	.	.	4A/	no-	.	4f/	.	.	4dd\	no-	.
!	!	!	!	!	!	!LO:MO:null:mod=-bis	!	!	!	!	!	!LO:MO:null:mod=-bis	!	!	!	!
4A-X/	.	8ee/L	.	.	4C/	.	.	4A-X/	-bis	.	4f/	.	.	8ee\L	-bis	.
.	.	8dd/J	.	.	.	.	.	.	.	.	.	.	.	8dd\J	.	.
!	!	!	!	!	!	!LO:MO:null:mod=pa-	!	!	!	!	!	!LO:MO:null:mod=pa-	!	!	!	!
[2G/	.	8cc/L	.	.	2C/	.	.	(4G\	pa-	.	2f/	.	.	8cc\L	pa-	.
.	.	8b/	.	.	.	.	.	.	.	.	.	.	.	8b\	.	.
.	.	8a/	.	.	.	.	.	4d\)	.	.	.	.	.	8a\	.	.
.	.	8b/J	.	.	.	.	.	.	.	.	.	.	.	8b\J	.	.
*v	*v	*	*	*	*	*	*	*	*	*	*	*	*	*	*	*
!!LO:LB:g=original
=28	=28	=28	=28	=28	=28	=28	=28	=28	=28	=28	=28	=28	=28	=28	=28
!LO:TX:a:t=P:problem=brak zakończenia ligatury	!	!	!	!	!LO:MO:null:mod=-cem.	!	!	!LO:MO:mod=-cem.	!	!	!LO:MO:null:mod=-cem.	!	!	!LO:MO:mod=-cem.	!
4G] 4C\]	4cc 4e\	4ryyyy	.	4C/	.	.	4c\	-cem	.	4e/	.	.	4cc\	-cem	.
4C\	4e/	[2.c\	.	4r	.	.	4r	.	.	4r	.	.	4r	.	.
4D\	4f/	.	.	2r	.	.	2r	.	.	2r	.	.	2r	.	.
4E\	4g/	.	.	.	.	.	.	.	.	.	.	.	.	.	.
=29	=29	=29	=29	=29	=29	=29	=29	=29	=29	=29	=29	=29	=29	=29	=29
!	!	!	!	!	!LO:MO:null:mod=Do-	!	!	!	!	!	!LO:MO:null:mod=Do-	!	!	!	!
1F	1a 1f	1c]	.	2.F\	.	.	2.c\	Do-	.	2.f/	.	.	2.a/	Do-	.
!	!	!	!	!	!LO:MO:null:mod=-na	!	!	!	!	!	!LO:MO:null:mod=-na	!	!	!	!
.	.	.	.	4F\	.	.	4c\	-na	.	4f/	.	.	4a/	-na	.
=30	=30	=30	=30	=30	=30	=30	=30	=30	=30	=30	=30	=30	=30	=30	=30
*^	*	*	*	*	*	*	*	*	*	*	*	*	*	*	*
!	!	!	!	!	!	!LO:MO:null:mod=no-	!	!	!	!	!	!LO:MO:null:mod=no-	!	!	!	!
4c/	2.G\	[1g	2.d\	.	2G\	.	.	(4c\	no-	.	2.d/	.	.	2.g/	no-	.
8B/L	.	.	.	.	.	.	.	8B\L	.	.	.	.	.	.	.	.
8A/J	.	.	.	.	.	.	.	8A\J	.	.	.	.	.	.	.	.
!	!	!	!	!	!	!LO:MO:null:mod=-bis	!	!	!	!	!	!	!	!	!	!
4B/	.	.	.	.	2GG/	.	.	4B\)	.	.	.	.	.	.	.	.
!	!	!	!	!	!	!	!	!	!	!	!	!LO:MO:null:mod=-bis	!	!	!	!
8G/L	4GG\	.	8e\L	.	.	.	.	8G/L	-bis	.	8e/L	.	.	4g/	-bis	.
8F/J	.	.	8d\J	.	.	.	.	8F/J	.	.	8d/J	.	.	.	.	.
*v	*v	*	*	*	*	*	*	*	*	*	*	*	*	*	*	*
=31	=31	=31	=31	=31	=31	=31	=31	=31	=31	=31	=31	=31	=31	=31	=31
!	!	!LO:SIC:s=[1c	!	!	!LO:MO:null:mod=pa-	!	!	!	!	!	!LO:MO:null:mod=pa-	!	!	!	!
[1E [>1C;	1g;_	1c	.	1C;	.	.	1E;	pa-	.	1c;	.	.	1g;	pa-	.
*	*v	*v	*	*	*	*	*	*	*	*	*	*	*	*	*
=32	=32	=32	=32	=32	=32	=32	=32	=32	=32	=32	=32	=32	=32	=32
!	!LO:SIC:s=2g] 2c]	!	!	!LO:MO:null:mod=-cem.]	!	!	!LO:MO:mod=-cem.	!	!	!LO:MO:null:mod=-cem.]	!	!	!LO:MO:mod=-cem.	!
2E] 2C\]	2g] 2c/	.	2C/	.	.	2E/	-cem	.	2c/	.	.	2g/	-cem	.
2r	2r	.	2r	.	.	2r	.	.	2r	.	.	2r	.	.
!!LO:TX:a:t= :mod=Fine
!	!	!	!LO:TX:b:t=Fine:mod=	!	!	!	!	!	!	!	!	!	!	!
==	==	==	==	==	==	==	==	==	==	==	==	==	==	==
*-	*-	*-	*-	*-	*-	*-	*-	*-	*-	*-	*-	*-	*-	*-
!!!RDF**kern: > = above
!!LO:MO:ori
!!!system-decoration: <s1,s2,s3,s4>[(s5,s6)]
!!LO:MO:mod
!! !!!system-decoration: [(s1,s2,s3,s4)]{(s5,s6)}
!!LO:MO:end
!!!filter-modern: shed -e "s/TX(.*):t=P:/tx$1:t=P:/LG" | shed -X dynam -e "s/:b/:B/LX" | shed -e "s/:rj/:RJ/L" | sic -sq | modori -m | autostem -r | tie -s | humtr -p | shed -e "s/yy//" | shed -k -e "s/[<>]//g"
!!!ENC: Krzysztof Stępień
!!!END: 2021-05-14
!!!EED: Andrzej Kubiczek
!!!EEV: 2021-06-06
!!!ENC-modern: Andrzej Kubiczek
!!!END-modern: 2022-07-10
